X:27
T: DA DRUNTEN IM GAERTELEIN
N: E0009A
O: Europa, Mitteleuropa, Deutschland, Wetzlar, Dutenhofen
R: Sage, Maerchen -, Zauber - Lied
M: 6/8
L: 1/16
K: G
D2 | G3AB2c2B2A2 | G6z4
A2 | A4B2d2c2B2 | A6z4
G2 | B4ded3ccB | A2A2d2B3ABA |
G2G3AB2B2e2 | d4cdB4

@@@ Tune index: 3677
